X: 121
T:Mazurka De Comptoir
M:3/4
L:1/8
S:via Neil Brook
R:Mazurka
Z:Steve Mansfield
K:G
DEF |: G2 GFGA |B3 ABc | BA GF EF |1 E2 D2 EF :|2 G3D ED |
|: F2 FD ED | F2 FD ED | cB AG FE | FE DD ED | F2 FD ED |
F2 FD ED | cB AG FA |1 G3 DED :|2 G3 ||
<end>
<start>
